X: 274
T: Mai gaoyao
%%abc-version 2.0
%%abcx-abcm2ps-target-version 5.9.1 (29 Sep 2008)
%%abc-creator hum2abc beta
%%abcx-conversion-date 2013/10/02 07:52:29
%%abc-edited-by Helmut Schaffrath
%%humdrum-veritas 2621673212
%%humdrum-veritas-data 4209848417
%%continueall 1
%%barnumbers 0
L: 1/16
M: 2/4
K: G
d2> e2 d2 B A [I:setbarnb 1]| 
d2> e2 d2 B A | 
d2> e2 d2 B A | 
B d B AG4 | 
d B2 d G2 G2 | 
d2 e2 d2 B A | 
d B2 d d2 B A | 
B d B AG4 |]  



